icon/pk/tailoring-two.svg

<svg viewBox="0 0 48 48" fill="none" xmlns="http://www.w3.org/2000/svg" height="1em" width="1em">
  <path d="M42 5H37.4142C36.5233 5 36.0771 6.07714 36.7071 6.70711L41.2929 11.2929C41.9229 11.9229 43 11.4767 43 10.5858V6C43 5.44772 42.5523 5 42 5Z" fill="black"/>
  <path d="M8 43H12.5858C13.4767 43 13.9229 41.9229 13.2929 41.2929L8.70711 36.7071C8.07714 36.0771 7 36.5233 7 37.4142L7 42C7 42.5523 7.44772 43 8 43Z" fill="black"/>
  <path d="M14 4V32C14 33.1046 14.8954 34 16 34H44" stroke="black" stroke-width="4" stroke-linecap="round" stroke-linejoin="round"/>
  <path d="M21 13H35V27" stroke="black" stroke-width="4" stroke-linecap="round" stroke-linejoin="round"/>
  <path d="M14 13H6" stroke="black" stroke-width="4" stroke-linecap="round"/>
  <path d="M36 42V34" stroke="black" stroke-width="4" stroke-linecap="round"/>
</svg>

<svg width="48" height="48" fill="none" xmlns="http://www.w3.org/2000/svg"><path d="M42 5h-4.586c-.89 0-1.337 1.077-.707 1.707l4.586 4.586c.63.63 1.707.184 1.707-.707V6a1 1 0 0 0-1-1ZM8 43h4.586c.89 0 1.337-1.077.707-1.707l-4.586-4.586c-.63-.63-1.707-.184-1.707.707V42a1 1 0 0 0 1 1Z" fill="#000"/><path d="M14 4v28a2 2 0 0 0 2 2h28" stroke="#000" stroke-width="4" stroke-linecap="round" stroke-linejoin="round"/><path d="M21 13h14v14" stroke="#000" stroke-width="4" stroke-linecap="round" stroke-linejoin="round"/><path d="M14 13H6M36 42v-8" stroke="#000" stroke-width="4" stroke-linecap="round"/></svg>
